X:1
T:Siciliano
T:Johann Sebastian Bach (BWV 1031)
T:Siciliano
T:public domain
T:public domain
T:public domain
C:Johann Sebastian Bach (BWV 1031)
Z:public domain
%%score 1 { ( 2 4 ) | 3 }
L:1/8
Q:1/8=104
M:6/8
K:Gmin
V:1 treble nm="Flöte" snm="Fl."
V:2 treble nm="Flügel" snm="Klav."
V:4 treble 
V:3 bass 
V:1
!mf! z6 | z6 | z6 |:!mf! d>ed dge | c6 | c>dc cac |{c} B>AG z2 z | Bde- ec'e | ed z fbf- | %9
 fgf- fed | c/f/a/c'/b/d'/ c'/b/a/g/f/e/ | d2 z z2 z | f>gf fbg | e6 | e>fe ec'e | %15
 d/F/G/A/B/c/ d/f/bd | d c2- cac- | c/A/B/d/g/a/ b>ag | a>gf- f/=e/g/f/=e/d/ | %19
 ^c2 d =e/^g/a/e/f/d/ | ^c2 d =e/^g/a/e/f/d/ | ^c/d/=eA B/d/c/d/e/d/ | %22
 A/d/^c/d/=e/d/ G/B/A/G/F/=E/ | FDd _e/g/^f/g/a/g/ | d/g/^f/g/a/g/ c/_e/d/c/B/A/ :| d>ed dge | c6 | %27
 c>dc cac | B/G/A/B/c/d/ e/f/e/d/c/B/ | A/^c/d/A/B/G/ ^F2 G | A/^c/d/A/B/G/ ^F2 G | %31
 A/G/A/B/=c/d/ edc | B/d/c/B/A/G/ e/>c/B<A | GdB GgB | z/ B/A/B/g/B/ B/>c/B/AG/ | !fermata!G6 |] %36
V:2
!p! B,/G/B/G/^F/G/ C/G/B/G/F/G/ | D/G/B/G/^F/G/ E/G/B/G/F/G/ | A,/G/A/G/^F/G/ D/F/A/F/=E/F/ |: %3
!p! B,/G/B/G/^F/G/ B,/G/B/G/F/G/ | A,/C/E/C/A,/C/ A,/C/E/C/A,/C/ | A,/D/A/^F/=E/F/ D/A/c/A/D/A/ | %6
 z/ A/G/^F/G/D/ B,/E/D/C/D/B,/ | G,/G/B/G/^F/G/ C/c/e/c/B/c/ | =F/c/B/A/B/F/ D/B/d/B/A/B/ | %9
 G/B/e/B/_A/B/ G/B/c/=A/B/G/ | AF z z2 z | B,/F/A/c/B/d/ c/B/A/G/F/E/ | D/B/d/B/A/B/ D/B/d/B/A/B/ | %13
 C/E/G/E/C/E/ C/E/G/E/C/E/ | C/F/c/A/G/A/ F/c/e/c/F/c/ | B>FG/A/ B/c/d/B/F/B/ | %16
 B/G/A/=E/F/G/ A/B/c/A/D/A/- | A/^F/G/A/B/c/ d/d/g/=f/=e/d/ | c/c/f/=e/d/c/ B/c/B/A/G/F/ | %19
 =E/^G/A/E/F/D/ ^C2 D | =E/^G/A/E/F/D/ ^C2 D | =EA/G/ F/D/ G3 | C2 z =E^CA, | %23
 D/A,/D/C/B,/G,/ C2 z | F2 z A^FD :| B,/G/B/G/^F/G/ B,/G/B/G/F/G/ | A,/C/E/C/A,/C/ A,/C/E/C/A,/C/ | %27
 A,/D/A/^F/=E/F/ D/A/c/A/D/A/ | G>=FE/D/ Cc/B/A/G/ | ^F2 G A/^c/d/A/B/G/ | ^F2 G A/^c/d/A/B/G/ | %31
 ^F/=E/F/G/A/B/ cBA | G3- G/>A/G<^F | z/ G/B/G/^F/G/ B,/G/B/G/F/G/ | z/ G/^F/G/B/G/ G/>A/ F2 | %35
 !fermata!G6 |] %36
V:3
!p! G,,2 z A,,2 z | B,,2 z C,2 z | D,2 z D,,2 z |:!p! G,,2 z G,,2 z | G,,2 z G,,2 z | %5
 ^F,,2 z F,,2 z | G,,2 z G,,2 z | G,,2 z A,,2 z | B,2 z B,,2 z | E,2 z E,2 =E, | F,2 G, A,F,A, | %11
 B,,F,,G,, A,,F,,A,, | B,,2 z B,,2 z | B,,2 z B,,2 z | A,,2 z A,2 z | B,2 z B,,2 z | F,2 z ^F,2 z | %17
 G,2 z G,2 C | F,2 B, G,3 | A,2 z A,2 z | A,2 z A,2 z | A,/A,,/-A,,/G,,/F,,/D,,/ G,,3 | %22
 F,2 z =E,^C,A,, | D,,/A,,/D,/C,/B,,/G,,/ C,2 z | [B,,B,]2 z A,,^F,,D,, :| G,,2 z G,,2 z | %26
 G,,2 z G,,2 z | ^F,,2 z ^F,2 z | G,2 z C,2 C, | D,2 z D,2 z | D,2 z D,2 z | D,2 z ^F,,2 z | %32
 G,,A,,B,, C,D,D,, | G,,2 z E,2 z | ^C,3 D,2 D,, | !fermata!G,,6 |] %36
V:4
 x6 | x6 | x6 |: x6 | x6 | x6 | x6 | x6 | x6 | x6 | x6 | x6 | x6 | x6 | x6 | x6 | x6 | x6 | x6 | %19
 x6 | x6 | x6 | x6 | x6 | x6 :| x6 | x6 | x6 | x6 | B,CD EDC | B, z z4 | z6 | B,CD EDC | B, x5 | %34
 z6 | x6 |] %36

